!!!OTL-incipit: I HA DAHEIM EN MAIDLI CHA, UNDS MAIDLI HAET MI LIEB
!!!ARE: Europa, Mitteleuropa, Deutschland, Mitteleuropa, Schweiz
!!!SCT: Z0152
!!!TXL: @@DE
!!!YEM: Copyright 1995, estate of Helmut Schaffrath.
**kern	**text
*ICvox	*
*M2/4	*
*k[]	*
*C:	*
!LO:TX:a:t=Schweiʒeriſch.	!
{8g	J
=1	=1
8a	ha
8g	da-
8f	-heim
8d	en
=2	=2
8e	Maid-
8g	-li
8cc}	cha,
{8g	und's
=3	=3
8g	Maid-
8ff	-li
8a	hät
8b	mi
=4	=4
4.cc}	lieb,
{8g	ach
=5	=5
8a	wie
8g	ha
8f	i
8d	ſo
=6	=6
8e	ü-
8g	-bel
8cc}	than,
{8g	daß
=7	=7
8.ff;	i
16dd	nit
8a	bi
8b/	nem
=8	=8
4cc	blieb.
8r}	.
{8ee	O
=9	=9
8ee	Maidli
8dd	.
8dd	mi,
8ee	o
=10	=10
8dd	Maidli
8cc	.
8cc}	mi,
{8dd	chönt
=11	=11
8cc	i
8b	nu
8b	wie-
8b	-der
=12	=12
8dd	bi
8cc	dir
8cc}	ſie.
{16ff;L	O
16eeJ	.
=13	=13
8cc#	Maidli
8dd	.
8dd	mi,
16ee;L	o
16ddJ	.
=14	=14
8b	Maidli
8cc	.
8cc}	mi,
{16eeL	chönt
16ccJ	i
=15	=15
8b/	wie-
8g	-der
8a	bi
8b/	dir
=16	=16
4cc	ſie.
8r}	.
==	==
!!!AGN: Erzaehlung, lustige Romanze
!!!ONB: ESAC (Essen Associative Code) Database: ZUCCAL
!!!AMT: simple duple
!!!AIN: vox
!!!EED: Helmut Schaffrath
!!!EEV: 1.0
!!!GTL: II. Erzahlungen, lustige Romanzen, Kinder-Lieder und episch-lyrische Volks-Lieder.
!!!URL-scan: https://www.digitale-sammlungen.de/de/view/bsb11160571?page=288
!!!ENC: Anna Maria Matuszewska
!!!EEV: 2025/01/28
*-	*-
